X: 1
T: Petits matins
R: shottish
S: handout at NEFFA 2016 from Mark Vidor p.9
Z: 2016 John Chambers <jc:trillian.mit.edu>
M: 2/4
L: 1/16
K: Am
|:\
"Am"EABc B2AB | "(F)"cBAG- "Em(G)"GABc |\
"Am"EABc B2AB | cBA[e-B-] "Em/G"[e4B4] :|
"F"f2ed- dcde | fedc "Am"A2Bc |\
"G"d2cB- Bcdg | "C"ecde- "E7"e4 ||
"F"fgfe dcde | "G7"fede "Am"c2BA |\
EABc B2AB | "Em"cBGA- "Am"A4 |]
